assets/icons/actions/pen.svg

<svg width="24" height="24" viewBox="0 0 24 24" fill="none" xmlns="http://www.w3.org/2000/svg">
<path d="M18 1L23 6L7 22H2V17L18 1ZM15 7L4 18V20H6L17 9L15 7ZM18 4L16.5 5.5L18.5 7.5L20 6L18 4Z" fill="#001E3E"/>
</svg>

<svg xmlns="http://www.w3.org/2000/svg" width="24" height="24" viewBox="0 0 24 24">
    <g fill="none" fill-rule="evenodd">
        <g fill="#001E3E" fill-rule="nonzero">
            <path d="M18 1l5 5L7 22H2v-5L18 1zm-3 6L4 18v2h2L17 9l-2-2zm3-3l-1.5 1.5 2 2L20 6l-2-2z"/>
        </g>
    </g>
</svg>
